!!!!SEGMENT: pl-lzu--m-15111--001-021_noskowski-zygmunt--spiewnik-dla-dzieci-op-34-21-zuczek.krn
!!!cenid: 18xx:4718
!!!COM: Noskowski, Zygmunt
!!!COM-rismID: pe106604
!!!CDT: 1846/05/02-1909/07/23
!!!CNT: Polish
!!!GTL: Śpiewnik dla dzieci, op. 34
!!!OTL: 21. Żuczek
!!!OMV: 021
!!!PDT: 1890
!!!AGN: Secular; Song; Children
!!!YEC: Copyright 2022 Narodowy Instytut Fryderyka Chopina (https://polishscores.org)
!!!YEM: License CC-BY-4.0 (https://creativecommons.org/licenses/by/4.0)
!!!SMS-siglum: PL-LŹu
!!!SMS-shelfmark: M 15111
!!!SMS-variant:
!!!SMS-altvar:
!!!SMS-shelfwork: 001-021 G
!!!NIFC-rismSourceID: 1001234040
!!!NIFC-rismChildID: 1001234040
!!!NIFC-islandoraID: pl-lzu:5455
!!!URL-pdf-islandora: https://repozytorium.nifc.pl/islandora/object/pl-lzu%3A5455/datastream/PDF/view
!!!URL-scan: https://polish.musicsources.pl/pl/lokalizacje/galeria/druki-muzyczne/23228/28 @EN{Scan on Polish Music Sources Website} @PL{Skany w portalu Dziedzictwo Muzyki Polskiej w otwartym dostępie}
!!!IIIF:
!!!ONB-nifc:
!!!AIN: 1 canto 2 piano
!!!key: E-
**kern	**kern	**dynam	**kern	**text	**text	**dynam
*part3	*part2	*part2	*part1	*part1	*part1	*part1
*staff3	*staff2	*	*staff1	*staff1	*staff1	*
*ICklav	*ICklav	*	*ICvox	*	*	*
*Ipiano	*Ipiano	*	*Icanto	*	*	*
*I"[Pianoforte]	*I"[Pianoforte]	*	*I"[Voce]	*	*	*
*clefF4	*clefG2	*	*clefG2	*	*	*
*k[b-e-a-]	*k[b-e-a-]	*	*k[b-e-a-]	*	*	*
*E-:	*E-:	*	*E-:	*	*	*
*M2/4	*M2/4	*	*M2/4	*	*	*
*>[A,A,B]	*>[A,A,B]	*>[A,A,B]	*>[A,A,B]	*>[A,A,B]	*>[A,A,B]	*>[A,A,B]
=1	=1	=1	=1	=1	=1	=1
*>A	*>A	*>A	*>A	*>A	*>A	*>A
!	!LO:TX:a:i:t=Umiarkowanie i żartobliwie.	!LO:DY:rj	!LO:TX:a:B:t=Moderato scherzando.	!	!	!
8E-'\L	8e-L 8B- 8G'/	p	2r	.	.	.
8E-'\J	8e- 8B- 8G'/	.	.	.	.	.
(16C/LL	8e- 8B- 8G'/	.	.	.	.	.
16D/	.	.	.	.	.	.
16C/	8e-J 8B- 8G'/	.	.	.	.	.
16BB-/JJ)	.	.	.	.	.	.
=2	=2	=2	=2	=2	=2	=2
8F'\L	8dL 8B- 8A-'/	.	2r	.	.	.
8F'\J	8d 8B- 8A-'/	.	.	.	.	.
4BB-^/	8d 8B- 8A-'/	.	.	.	.	.
.	8dJ 8B- 8A-'/	.	.	.	.	.
=3	=3	=3	=3	=3	=3	=3
8E-'\L	8e-L 8B- 8G'/	.	2r	.	.	.
8E-'\J	8e- 8B- 8G'/	.	.	.	.	.
(16C/LL	8e- 8B- 8G'/	.	.	.	.	.
16D/	.	.	.	.	.	.
16C/	8e-J 8B- 8G'/	.	.	.	.	.
16BB-/JJ)	.	.	.	.	.	.
=4	=4	=4	=4	=4	=4	=4
8FF'/L	8dL 8B- 8A-'/	.	2r	.	.	.
8FF'/J	8d 8B- 8A-'/	.	.	.	.	.
4BB-^/	8d 8B- 8A-'/	.	.	.	.	.
.	8dJ 8B- 8A-'/	.	.	.	.	.
=5	=5	=5	=5	=5	=5	=5
*	*	*	*	*v:1	*v:2	*
!	!	!	!	!	!	!LO:DY:a:rj
8GL 8E-'\	8dL 8B-'/	.	8d/	Wy-	Za	p
8GJ 8E-'\	8e-J 8B-'/	.	8e-/	-szedł	to	.
8GL 8E-'\	8b-L 8e- 8B-'/	.	8b-\	żu-	im	.
8GJ 8E-'\	8b-J 8e- 8B-'/	.	8b-\	-czek	mu-	.
!!LO:LB:g=original
=6	=6	=6	=6	=6	=6	=6
*	*	*	*	*v:1	*v:2	*
8GL 8E-'\	8dL 8B-'/	.	8d/	na	-sia-	.
8GJ 8E-'\	8e-J 8B-'/	.	8e-/	sło-	-łem	.
8GL 8E-'\	8b-L 8e- 8B-'/	.	8b-\	-necz-	pła-	.
8GJ 8E-'\	8b-J 8e- 8B-'/	.	8b-,\	-ko,	-cić	.
=7	=7	=7	=7	=7	=7	=7
8GL 8E-'\	8e-L 8B-'/	.	8e-/	W zie-	Po	.
8GJ 8E-'\	8ccJ 8e-'/	.	8cc\	-lo-	dwa-	.
8GL 8E-'\	8b-L 8e-'/	.	8b-\	-nym	-na-	.
8E-'\J	(16gL 16e-/	.	(16g/LL	pła-	-ście	.
.	16b-/JJ)	.	16b-/JJ)	.	.	.
=8	=8	=8	=8	=8	=8	=8
8C/L	8ee-L 8a- 8e-'/	.	(8ee-\L	-szczy-	gro-	.
8D/J	8ccJ 8a- 8f'/	.	8cc\J)	.	.	.
(16E-\LL	4b- 4g/	.	4b-\	-ku.	-szy	.
16D\	.	.	.	.	.	.
16E-\	.	.	.	.	.	.
16F\JJ)	.	.	.	.	.	.
=9	=9	=9	=9	=9	=9	=9
8F#X'\L	8anL 8d'/	.	8an/	Nie	I	.
8F#'\J	8cc#XJ 8a 8d'/	.	8cc#X\	bierz-	jesz-	.
(16F#\LL	8ddL 8a 8d'/	.	8dd\	-że	-czem	.
16En\	.	.	.	.	.	.
16F#\	8ddJ 8a 8d'/	.	8dd\	mnie	się	.
16D\JJ)	.	.	.	.	.	.
!!LO:LB:g=original
=10	=10	=10	=10	=10	=10	=10
*	*	*	*	*v:1	*v:2	*
8B-'\L	8f#XL 8d'/	.	8f#X/	za	za-	.
8B-'\J	8gJ 8d'/	.	8g/	skrzy-	-po-	.
(16c\LL	8ddL 8g 8d'/	.	8dd\	-deł-	-ży-	.
16B-\	.	.	.	.	.	.
16An\	8ddJ 8g 8d'/	.	8dd,\	-ka	-czył	.
16G\JJ)	.	.	.	.	.	.
=11	=11	=11	=11	=11	=11	=11
8AnL 8D'\	8ccL 8f#X 8d'/	.	8ccn\	Mi-	U	.
8F#XJ 8D'\	8dJ 8c'/	.	8d/	-ły	tej	.
8F#L 8D'\	8anL 8c'/	.	8an/	mój	pstrej	.
!	!LO:S:s=1:note:problem:note-level slur	!	!	!	!	!
8F#J 8D'\	(16b-L 16c'/	.	(16b-\LL	chłop-	ko-	.
.	16cc/JJ)	.	16cc\JJ)	.	.	.
=12	=12	=12	=12	=12	=12	=12
8G'\L	8b-L 8g 8d'/	.	(8b-/L	-czy-	-ko-	.
8D'\J	8anJ 8f#X 8c'/	.	8an/J)	.	.	.
8GG/	8g 8B-/	.	8g/	-ku.	-szy.	.
8r	8r	.	8r	.	.	.
=13	=13	=13	=13	=13	=13	=13
8.A-XL 8.Fn 8.BB-^\	8.b-L 8.d^/	.	8.b-^>/	Nie	Jak	.
16A-Jk 16F 16BB-'\	16a-XJk 16d'/	.	16a-X/	bierz-	u-	.
8A-L 8F 8BB-'\	8a-L 8d'/	.	8a-/	-że	-szy-	.
8A-J 8F 8BB-'\	8ccJ 8d'/	.	8cc\	mnie	-ły,	.
!!LO:PB:g=original
=14	=14	=14	=14	=14	=14	=14
*	*	*	*	*v:1	*v:2	*
8.GL 8.BB-^\	8.b-L 8.e-^/	.	8.b-^>/	za	wy-	.
16GJk 16BB-'\	16gJk 16e-'/	.	16g/	skrzy-	-kro-	.
8GL 8BB-'\	8gL 8e-'/	.	8g/	-deł-	-i-	.
8GJ 8BB-'\	8ccJ 8e-'/	.	8cc,\	-ka,	-ły,	.
=15	=15	=15	=15	=15	=15	=15
8.A-L 8.BB-^\	8.fL 8.d^/	.	8.f^>/	Bo	Tak	.
16A-Jk 16BB-'\	16enJk 16d'/	.	16en/	mam	płasz-	.
8A-L 8BB-'\	8fL 8d'/	.	8f/	płasz-	-czyk	.
8FJ 8BB-'\	8a-J 8d'/	.	8a-/	-czyk	za	.
=16	=16	=16	=16	=16	=16	=16
8E-'\L	8gL 8e-'/	.	(8g/L	no-	krót-	.
8FJ 8E-'\	8a-J 8e-'/	.	8a-/J)	.	.	.
8GL 8E-'\	4b- 4e-/	.	4b-/	-wy,	-ki,	.
(16E-\L	.	.	.	.	.	.
16F\JJ)	.	.	.	.	.	.
=17	=17	=17	=17	=17	=17	=17
!	!	!LO:DY:rj	!	!	!	!LO:DY:a:rj
8.G^\L	8.dd-XL 8.b- 8.e-^/	mf	8.dd-X^\	Szy-	Je-	f
16G'\Jk	16b-Jk 16e-'/	.	16b-\	-ły	-szcze	.
8G'\L	8b-L 8e-'/	.	8b-\	mi	im	.
8B-J 8E-'\	8ee-J 8g 8e-'/	.	8ee-\	go	mu-	.
!!LO:LB:g=original
=18	=18	=18	=18	=18	=18	=18
*	*	*	*	*v:1	*v:2	*
8.cL 8.A-^\	8.ccL 8.a- 8.e-^/	.	8.cc^\	dwa	-sia-	.
16cJk 16A-'\	16a-Jk 16e-'/	.	16a-/	chra-	-łem	.
8cL 8A-'\	8a-L 8e-'/	.	8a-/	-bąsz-	do-	.
8cJ 8F'\	8ee-J 8a- 8e-'/	.	8ee-\	-cze,	-dać	.
=19	=19	=19	=19	=19	=19	=19
8.B-L 8.BB-'\	8.ddL 8.a- 8.d'/	>	8.dd\	A	Po	.
!	!	!	!	!	!	!LO:HP:a
16B-Jk 16BB-'\	16ccJk 16a- 16e-'/	.	16cc\	kra-	kie-	>
8B-L 8BB-'\	8b-L 8a- 8d'/	.	8b-/	-ja-	-li-	.
8A-J 8BB-'\	8fJ 8d'/	]]	8f/	-ły	-szku	]
=20	=20	=20	=20	=20	=20	=20
!	!	!LO:DY:rj	!	!	!	!LO:DY:a
8E-'\L	8a-L 8d 8c'/	p	(8a-/L	so-	wód-	p
8E-'\J	8gJ 8e- 8B-'/	.	8g/J)	.	.	.
8E-'\	8e- 8B- 8G'/	.	4e-/	-wy.	-ki.	.
8r	8r	.	.	.	.	.
=21:|!	=21:|!	=21:|!	=21:|!	=21:|!	=21:|!	=21:|!
*>B	*>B	*>B	*>B	*>B	*>B	*>B
8E-'\L	8e-L 8B- 8G'/	.	2r	.	.	.
8E-'\J	8e- 8B- 8G'/	.	.	.	.	.
(16C/LL	8e- 8B- 8G'/	.	.	.	.	.
16D/	.	.	.	.	.	.
16C/	8e-J 8B- 8G'/	.	.	.	.	.
16BB-/JJ)	.	.	.	.	.	.
=22	=22	=22	=22	=22	=22	=22
8E-'/L	8e-L 8B- 8G'/	.	2r	.	.	.
8BB-'/J	8e-J 8B- 8G'/	.	.	.	.	.
8EE-'/	8e- 8B- 8G'/	.	.	.	.	.
8r	8r	.	.	.	.	.
==	==	==	==	==	==	==
*-	*-	*-	*-	*-	*-	*-
!!!system-decoration: s1{s2,s3}
!!!RDF**kern: > = above
!!!RDF**kern: < = below
!!!RDF**kern: N = linked
!!!ENC: Andrzej Gręziak
!!!EED: Katarzyna Serwa
!!!END: 2025-03-05
!!!EEV: 2025-03-25
